htdocs/bitrix/js/ui/icons/service/images/ui-service-g-assistant.svg

<svg xmlns="http://www.w3.org/2000/svg" width="42" height="42" viewBox="0 0 42 42"><path fill="#fff" d="M9.3206661,16.7353745 L9.30355,16.8736245 L9.30355,17.7148745 C9.30524819,17.7209945 9.30719774,17.7270845 9.30914759,17.7331745 L9.30915036,17.7331845 C9.31333038,17.7462445 9.3175112,17.7593045 9.3192195,17.7726745 C9.333621,17.8855545 9.3455054,17.9989645 9.3573893,18.1123545 C9.3825508,18.3524445 9.40771,18.5925145 9.456754,18.8276245 C9.824175,20.5883745 10.70218,22.0499745 12.1088,23.1727745 C13.88305,24.5890745 15.91082,25.0981745 18.14408,24.7215745 C19.79905,24.4424745 21.20745,23.6669745 22.34025,22.4282745 C23.87675,20.7481745 24.51985,18.7610845 24.29745,16.4972845 C24.20495,15.5553145 23.93795,14.6602245 23.48125,13.8316345 C22.23675,11.5737245 20.33705,10.2445745 17.77877,9.87522547 C16.88274,9.74585797 15.98923,9.79713311 15.11015,10.0086555 C13.29676,10.4449765 11.83398,11.4188745 10.73255,12.9222245 C9.972512,13.9596045 9.518918,15.1229945 9.3620385,16.4003745 L9.3206661,16.7353745 Z M33.67815,18.2621645 L33.69645,18.1986245 L33.69645,17.8147545 C33.69465,17.8112245 33.69255,17.8077445 33.69035,17.8042645 C33.68585,17.7968045 33.68125,17.7893445 33.68005,17.7813645 C33.55375,16.9451945 32.79955,16.3832545 31.96505,16.5040945 C31.16325,16.6202045 30.59745,17.3725445 30.70145,18.1843145 C30.79055,18.8800845 31.36515,19.4374445 32.04765,19.4901745 C32.79055,19.5475545 33.44375,19.0990945 33.63965,18.3973445 C33.65215,18.3522545 33.66515,18.3072445 33.67815,18.2622545 L33.67815,18.2621645 Z M24.34025,29.5172745 C24.34795,27.4780745 25.99765,25.8349745 28.02835,25.8439745 C30.05955,25.8529745 31.70195,27.5066745 31.69145,29.5321745 C31.68105,31.5645745 30.02855,33.2057745 28.00325,33.1951745 C25.97575,33.1845745 24.33265,31.5348745 24.34025,29.5172745 Z M31.02325,21.8400745 C31.02565,20.1760745 29.68295,18.8303045 28.01685,18.8268145 C26.36325,18.8233545 25.01325,20.1708745 25.00855,21.8294745 C25.00395,23.4854745 26.34765,24.8356745 28.00605,24.8414745 C29.67015,24.8472745 31.02085,23.5036745 31.02325,21.8400745 Z"/></svg>

<svg xmlns="http://www.w3.org/2000/svg" width="42" height="42" viewBox="0 0 42 42"><path fill="#fff" d="M9.32 16.735l-.016.139v.84a.49.49 0 0 0 .005.02c.004.012.009.025.01.039.015.113.027.226.038.34.026.24.05.48.1.715.367 1.76 1.245 3.222 2.652 4.345 1.774 1.416 3.802 1.925 6.035 1.549 1.655-.28 3.063-1.055 4.196-2.294 1.537-1.68 2.18-3.667 1.957-5.93a6.863 6.863 0 0 0-.816-2.666c-1.244-2.258-3.144-3.587-5.702-3.957a7.036 7.036 0 0 0-2.669.134c-1.813.436-3.276 1.41-4.377 2.913A7.298 7.298 0 0 0 9.362 16.4l-.041.335zm24.358 1.527l.018-.063v-.384a.132.132 0 0 0-.006-.01c-.004-.008-.009-.016-.01-.024a1.503 1.503 0 0 0-2.979.403c.09.696.664 1.253 1.347 1.306.743.058 1.396-.39 1.592-1.093l.038-.135zM24.34 29.517a3.677 3.677 0 0 1 3.688-3.673 3.677 3.677 0 0 1-.025 7.351c-2.027-.01-3.67-1.66-3.663-3.678zm6.683-7.677a3.007 3.007 0 1 0-6.014-.012 3.007 3.007 0 0 0 6.014.012z"/></svg>
